X:2
T:Chinesen-Walzer  CF 7- (wz07069) 
S:Hanny Christen. Bd.V  Basel II, Jura. S.169  ( wz07069) orig. G,C
S:Basel II. Tänze aus Böckten. S.146-181.
S:Überliefert durch Karl Schaub und Paul Brandenberger
%%MIDI program 21
%P:ABCA
R:Walzer
M:3/4
L:1/4
K:C %%MIDI gchordon
[P:A] "F"c/2B/2 d/2c/2 B/2c/2 | A2f | ("C"e3 | e)dc | "G7"d3 | dcB | "C"c3 | G3 | "F"c/2B/2 d/2c/2 B/2c/2 | 
A2f | ("C"e3 | e)dc | ("G7"d3 | d)cB | "C"c>cc | cz"_Fine"z :: [P:B] "C"cEG | c3 | 
eGc | e3 | "F"f3 | "C"e3 | !>!"G7"d3 | "C"cB/2A/2G | cEG | c3 | eGc | e3 | 
"F"f3 | "C"e3 | "G7"d2B | "C"czz :: [P:C] [K:F] ("F"A2c) | ("Bb"B2d) | ("F"A2c) | zdc | ("C7"e2d) | (d2c) | 
(c2B) | "F"Adc | (A2c ) | ("Bb"B2d) | ("F"A2c) | zdc | ("C7"e2d) | (c2B) | "F"A>ff | f"_>Teil A"zz :| 
W:
W:Parts: ABCA
%W:
%W:Anmerkung H.C.: Ormalingen, s.V. 362
% wz07069
% June 17, 2018



